X:1
T:Telemann's Enharmonic Modulation
T:Telemann's Enharmonic Modulation
T:Georg Philipp Telemann Analisis by S. Shchetnikov 
T:TVWV 1:638, "Gott, du lässest mich erfahren", mm. 19-27
T:        The technique of Telemann enharmonic modulation almost completely corresponds to the instructions from Rimsky-Korsakov's "Practical Manual of Harmony". See https://musescore.com/user/30712651/scores/5962482 The only difference is that Telemann uses incomplete chords and a "doubly augmented fourth" (="doubly diminished fifth") chord is resolved in tonic sixth chord. (You can read about the "doubly augmented fourth" chord in the W. Piston's textbook (page 279, 1959 edition). There are examples of classical composers using this chord.) 
%%score { ( 1 2 ) | ( 3 4 ) }
L:1/8
Q:1/4=80
M:4/4
K:Bb
V:1 treble nm="Piano" snm="Pno."
V:2 treble 
V:3 bass 
V:4 bass 
V:1
"_d:" z8 | z4 (=e4- | e4 =e4 |"_a:" f4 =e4 |"_e:""^Enharmonic Modulation" ^d4"_E♭:" _e4- | %5
"_g:""^Exact sequence of the previous two measures" e4 =d4 |"""_d:" ^c4"""_D♭:" _d4- | %7
"""_f:" d4"" =c4 |"""""_c:" !breath!g8) |] %9
[K:C][M:7/1]"""^C -- E♭""^Example from \"Practical Manual of Harmony\":\n""_C:""_e:""_{"[Q:1/2=80] (e8 e8"_e:""^dominant four-two\nchord in e minor\n" ^d8-"_E♭:""_=""^doubly diminished fifth\n6-5 chord in E♭ major\n\n" _e8 _e8 =d8 !breath!_e8) |] %10
[M:4/1]"""_e:""^The modulation scheme of Telemann:" (e8"""_e:" ^d8-"""_E♭:""_=" _e8"""_E♭:" _e8) |] %11
V:2
"" (A6"" G2 |"" F4"" A4 |"" G4"" A4 |"" =B4"" c4 |"" =B4"" _B4 |"" A4"" B4 | A4 _A4 | G4 _A2 F2 | %8
 =B4 c2 _B2) |][K:C][M:7/1]"" (c8"" c8"" B8-"" _c8"" _B8"" _B8"" _B8) |][M:4/1] (c8 B8- _c8 _B8) |] %11
V:3
 (^C8 | D4 ^C4 | D4 ^C4 | D4 A,4 | z4 _B,4 | C4 G,4 | z4 _A,4 | G,4 F2 E2 | D4 C4) |] %9
[K:C][M:7/1] (G8 ^F8 ^F8- ^F8 G8 _A8 G8) |][M:4/1] (A,8 A,8- =A,8 G,8) |] %11
V:4
 z4 (A,4- | A,4 A,4 | B,4 A,4 | ^G,4 A,4- | A,4 =G,4 | ^F,4 G,4- | G,4 =F,4 | =E,4 F,4- | %8
 F,4 _E,4) |][K:C][M:7/1] (C8 A,8 A,8- =A,8 _B,8 _B,8 _E,8) |][M:4/1] x32 |] %11

